X:3
T:Kaz a barh 3
G:Kazimodal
R:Kaz a barh
C:Traditionnel Vannetais, arrangement Ronan Keryell http://kazimodal.trad.org
% Originellement 112
Q:1/4=104
P:C4
M:4/4
S:Tonioù Breizh-Izel 1804 (Karnag), livre vert p. 485
K:Dm
P:C
%\large
%%MIDI ratio 3 1
%%%%MIDI program 109
%%MIDI gchord fcfzcfcz
% Velocity: accent (127) on first note, strong (100) on third (2*k beat)
%%MIDI beat 127 100 70 2
%%MIDI chordprog 105
%%MIDI chordvol 60
%%MIDI bassprog 32
%%MIDI bassvol 127
|: ({DE}"Dm"D)F/2G/2 "F"A3/2({GA}>G/2) "Bb"FD "C"F/2E/2D |1 "F"({AB}A)(G/2A/2) "Bb"F>D "Gm"FG "Am"A2 :|2 "Am"({AB}A)G/2A/2 "Bb"F>D F/2D/2"C"(E/2C/2) "Dm"D2 ||
 ({AB}"F"AB/2)A/2 "C"({GA}G)>E "Gm"(GA/2)G/2 F/2E/2"Am"D | (FG/2)E/2 "Bb"{G}F>D (F/2D/2)"C"E/2C/2 "Dm"D2 |
 ({AB}"F"AB/2)A/2 "C"({GA}G)>E "Gm"(GA/2)G/2 F/2E/2"Am"F | "Gm"(DF/2)D/2 "Am"EG/2E/2 "Bb"(F/2G/2)"C"E/2F/2 "Dm"D2 ||
